X: 20521
M: 2/4
L: 1/16
K: F
V: 1 staves=3
c2 |\
cfaf gcde | fegf afga | bgaf gdbg | fedc cBAB |\
cfaf gcde | fcgf gcde | fefd cBAG | F2F2F2 :|
|: cB |\
V: 2
z2 |\
|: z2 |\
V: 3 clef=bass middle=d
z2 |\
f2f2 c2B2 | f2c2 f2f2 | B2f2 B2B2 | f2f2 c2c2 |\
f2f2 c2B2 | f2c2 c2B2 | f2f2 c2c2 | f2f2f2 :|
|: z2 |\
f2f2 [g2B2][b2d2] | [g2d2][e2c2] d2c2 | f2f2 f2f2 | f2f2 c2z2 |\
f2f2 b2c'2 | c2f2 f2f2 | b2 c'c' c2c2 | f2f2f2 :|


